material/.icons/material/two-factor-authentication.svg

<svg xmlns="http://www.w3.org/2000/svg" viewBox="0 0 24 24"><path d="M2 7v2h4v2H4a2 2 0 00-2 2v4h6v-2H4v-2h2a2 2 0 002-2V9a2 2 0 00-2-2H2m7 0v10h2v-4h3v-2h-3V9h4V7H9m9 0a2 2 0 00-2 2v8h2v-3h2v3h2V9a2 2 0 00-2-2h-2m0 2h2v3h-2V9z"/></svg>

<?xml version="1.0" encoding="UTF-8"?><!DOCTYPE svg PUBLIC "-//W3C//DTD SVG 1.1//EN" "http://www.w3.org/Graphics/SVG/1.1/DTD/svg11.dtd"><svg xmlns="http://www.w3.org/2000/svg" xmlns:xlink="http://www.w3.org/1999/xlink" version="1.1" id="mdi-two-factor-authentication" width="24" height="24" viewBox="0 0 24 24"><path d="M2,7V9H6V11H4A2,2 0 0,0 2,13V17H8V15H4V13H6A2,2 0 0,0 8,11V9C8,7.89 7.1,7 6,7H2M9,7V17H11V13H14V11H11V9H15V7H9M18,7A2,2 0 0,0 16,9V17H18V14H20V17H22V9A2,2 0 0,0 20,7H18M18,9H20V12H18V9Z" /></svg>
